X:310
T:Brig O'Blair, The
C:Joe Buchanan's Scottish Tome - Page 008.1
I:008 1
C:George Bell
R:March
Z:Carl Allison
L:1/8
M:4/4
K:A
E2 |c>dec A2 EA | D>EFA d2 cd | e2 E2 e>cBA | B2 B>c B2 E2 |
|:c>dec A2 EA | D>EFA d2 cd | e2 E2 e>cBc | (A4 AB A A2) |]
G>A | B2 EG B2 A>B | c2 E>e c3 E | D>EFA FE e>c | B2 B>c B2 E2 |
|:c>dec A2 EA  | D>EFA d2 cd | e2 E2 e>cBc | (A4 {AB}{A}A2) |
